!!!!SEGMENT: Bis2001-Confirma_hoc_Deus.krn
!!!id: Bis2001
!!!AGN: Motet
!!!SCT: Picker (1987)
!!!voices: 4
!!!COM: Bisgueria
!!!OTL: Confirma hoc deus
**kern	**kern	**kern	**kern	**kern
*part5	*part4	*part3	*part2	*part1
*staff5	*staff4	*staff3	*staff2	*staff1
*I"Bassus	*I"Tenor II	*I"Tenor I	*I"Altus	*I"Superius
*I'B	*I'T. II	*I'T. I	*I'A	*I'S
*clefF4	*clefGv2	*clefGv2	*clefGv2	*clefG2
*k[]	*k[]	*k[]	*k[]	*k[]
*C:	*C:	*C:	*C:	*C:
*M2/1	*M2/1	*M2/1	*M2/1	*M2/1
*met(C)	*met(C)	*met(C)	*met(C)	*met(C)
!!section: Prima pars: Confirma hoc Deus
!!!OMD: Prima pars: Confirma hoc Deus
=1	=1	=1	=1	=1
0r	0r	0r	1G	0r
.	.	.	[1G	.
=2	=2	=2	=2	=2
1r	0r	0r	2G]	0r
.	.	.	2G	.
1C	.	.	1G	.
=3	=3	=3	=3	=3
1.C	0r	0r	1A	0r
.	.	.	[1G	.
2C	.	.	.	.
=4	=4	=4	=4	=4
1C	0r	0r	2G]	0r
.	.	.	4F	.
.	.	.	4E	.
1D	.	.	4F	.
.	.	.	4G	.
.	.	.	4A	.
.	.	.	4B	.
=5	=5	=5	=5	=5
1.C	1r	0r	4c	0r
.	.	.	4d	.
.	.	.	1e	.
.	1G	.	.	.
4BB	.	.	4d	.
4AA	.	.	4c	.
=6	=6	=6	=6	=6
1BB	1.G	1r	1d	0r
[1C	.	1c	2e	.
.	2G	.	4c	.
.	.	.	4d	.
=7	=7	=7	=7	=7
1C_	1G	1.c	4e	0r
.	.	.	4f	.
.	.	.	4g	.
.	.	.	4f	.
1C_	1A	.	4e	.
.	.	.	4d	.
.	.	2c	[2e	.
=8	=8	=8	=8	=8
2C]	1.G	1c	2e]	0r
4BB	.	.	4d	.
4AA	.	.	4c	.
2GG	.	1d	4B	.
.	.	.	4c	.
2BB	4F	.	4d	.
.	4E	.	4B	.
=9	=9	=9	=9	=9
1AA	2.F#i	1.c	1c	1r
.	4E	.	.	.
[1GG	1G	.	[1d	1g
.	.	4B	.	.
.	.	4A	.	.
=10	=10	=10	=10	=10
1GG]	1G	1B	1d]	1.g
1C	2G	1c	[1e	.
.	2G	.	.	2g
=11	=11	=11	=11	=11
1.C	2G	1c	2e]	1g
.	2G	.	2e	.
.	1E	[1c	1e	1a
2C	.	.	.	.
=12	=12	=12	=12	=12
1C	0G	2c]	0e	1.g
.	.	2c	.	.
1C	.	2c	.	.
.	.	2c	.	4f
.	.	.	.	4e
=13	=13	=13	=13	=13
1D	1F	1A	1d	1.f
2.C	1E	1c	2.G	.
.	.	.	.	[2g
4BB	.	.	4A	.
=14	=14	=14	=14	=14
4GG	2.D	1B	4B	1g]
4AA	.	.	4c	.
4BB	.	.	2.d	.
4C	4E	.	.	.
1D	4F	1A	.	1r
.	4G	.	4e	.
.	4A	.	4f	.
.	4F	.	4d	.
=15	=15	=15	=15	=15
1GG	1G	0G	2e	1g
.	.	.	2d	.
1C	1E	.	1e	2g
.	.	.	.	2g
=16	=16	=16	=16	=16
1.C	1.G	1c	1c	1g
.	.	[1c	[1e	1g
2C	2G	.	.	.
=17	=17	=17	=17	=17
1C	1A	2c]	2e]	2.e
.	.	2c	2e	.
.	.	.	.	4f
1C	2G	2c	1e	4g
.	.	.	.	4a
.	2E	2c	.	[2g
=18	=18	=18	=18	=18
1D	1F	1A	1d	2g]
.	.	.	.	2f
1C	1G	2.c	2e	1e
.	.	.	2e	.
.	.	4B	.	.
=19	=19	=19	=19	=19
[0D	1F	4A	0f	2.d
.	.	4G	.	.
.	.	1A	.	.
.	.	.	.	4e
.	2r	.	.	4f
.	.	.	.	4g
.	2D	[2d	.	4a
.	.	.	.	4b
=20	=20	=20	=20	=20
0D]	2.F	2d]	1d	4a
.	.	.	.	4f
.	.	4c	.	1g
.	4G	4B	.	.
.	4A	1A	[1d	.
.	4D	.	.	.
.	[2d	.	.	2f#i
=21	=21	=21	=21	=21
0GG	4d]	1G	2d]	[0g
.	4c	.	.	.
.	4B	.	2d	.
.	4A	.	.	.
.	4B	[1G	1d	.
.	4c	.	.	.
.	4d	.	.	.
.	4B	.	.	.
=22	=22	=22	=22	=22
1.C	2c	2G]	1.e	0g]
.	2.G	2G	.	.
.	.	1G	.	.
.	4F	.	.	.
2C	4E	.	[2c	.
.	4D	.	.	.
=23	=23	=23	=23	=23
1C	1E	1.A	4c]	0r
.	.	.	4d	.
.	.	.	2e	.
[1D	1D	.	2f	.
.	.	2F	[2d	.
=24	=24	=24	=24	=24
2D]	1r	1A	4d]	1r
.	.	.	4e	.
2D	.	.	2f	.
1C	2r	[1c	4g	2r
.	.	.	4f	.
.	2G	.	4e	[2g
.	.	.	4d	.
=25	=25	=25	=25	=25
1C	2E	1c]	1e	2g]
.	2.G	.	.	2g
2GG	.	2B	2d	1g
.	4F	.	.	.
2C	4E	[2c	[2e	.
.	4D	.	.	.
=26	=26	=26	=26	=26
2C	2E	4c]	2e]	1.a
.	.	4B	.	.
1D	1F	4A	1d	.
.	.	4G	.	.
.	.	[1A	.	.
2D	2F	.	2d	2f
=27	=27	=27	=27	=27
1D	1F	0A]	1d	1a
[1C	[1E	.	[1e	[1cc
=28	=28	=28	=28	=28
0C_	0E_	[0G	2e]	0cc_
.	.	.	2c	.
.	.	.	1e	.
=29	=29	=29	=29	=29
1C]	1E]	0G]	[0g	1cc]
[1GG	[1D	.	.	[1b
=30	=30	=30	=30	=30
1GG]	1D]	1.d	1g]	1b]
1D	2.F	.	2f	[1a
.	.	2d	[2f	.
.	4G	.	.	.
=31	=31	=31	=31	=31
1F	2A	2c	2f]	2a]
.	2A	2c	2f	2a
1G	4E	2B	2e	2g
.	4F	.	.	.
.	4G	4A	2e	2g
.	4E	4G	.	.
=32	=32	=32	=32	=32
2D	1F	2A	2d	2f
2F	.	2A	1c	4e
.	.	.	.	4d
4C	2E	1G	.	2e
4D	.	.	.	.
4E	[2G	.	4B	2e
4F	.	.	4A	.
=33	=33	=33	=33	=33
2.G	4G]	1r	2.B	2.d
.	4A	.	.	.
.	4B	.	.	.
8FL	4G	.	4c	4e
8EJ	.	.	.	.
2.D	2A	1A	1d	4f
.	.	.	.	4g
.	[2A	.	.	[2a
8CL	.	.	.	.
8BBJ	.	.	.	.
=34	=34	=34	=34	=34
2AA	4A]	[0c	0e	2a]
.	8GL	.	.	.
.	8FJ	.	.	.
2AA	2.E	.	.	2a
1C	.	.	.	2g
.	4F	.	.	.
.	4G	.	.	2g
.	4E	.	.	.
=35	=35	=35	=35	=35
2FF	2F	0c]	2A	2f
2C	2G	.	2.c	4e
.	.	.	.	4d
2C	2E	.	.	2e
.	.	.	8BL	.
.	.	.	8AJ	.
2C	[2G	.	4G	2e
.	.	.	4A	.
=36	=36	=36	=36	=36
1GG	4G]	1B	4B	2.d
.	8FL	.	4c	.
.	8EJ	.	.	.
.	2.D	.	2.d	.
.	.	.	.	4e
[1F	.	[1A	.	4f
.	4E	.	8cL	4g
.	.	.	8BJ	.
.	4F	.	4A	2a
.	4G	.	4B	.
=37	=37	=37	=37	=37
2F]	2A	2A]	4c	2f
.	.	.	4d	.
4E	1G	1c	1e	2g
4D	.	.	.	.
2C	.	.	.	2e
[2D	[2F	4B	4d	2f
.	.	4A	4c	.
=38	=38	=38	=38	=38
2D]	2F]	2B	2d	2d
2C	2E	2c	2G	1g
1D	1F	1A	[1d	.
.	.	.	.	2f#i
=39	=39	=39	=39	=39
[0GGl	[0Dl	[0Gl	2d]	[0gl
.	.	.	2G	.
.	.	.	2.B	.
.	.	.	4c	.
=	=	=	=	=
00GG]	00D]	00G]	00d	00g]
=||	=||	=||	=||	=||
*M2/1	*M2/1	*M2/1	*M2/1	*M2/1
*met(C|)	*met(C|)	*met(C|)	*met(C|)	*met(C|)
!!section: Secunda pars: Gloria Patri
!!!OMD: Secunda pars: Gloria Patri
0r	1r	0r	1G	0r
.	1D	.	2.A	.
.	.	.	4B	.
=40	=40	=40	=40	=40
0r	2.E	0r	4c	0r
.	.	.	4d	.
.	.	.	1c	.
.	4F	.	.	.
.	4G	.	.	.
.	4A	.	.	.
.	[2G	.	4B	.
.	.	.	4A	.
=41	=41	=41	=41	=41
1r	2G]	0r	2B	0r
.	4F	.	2c	.
.	4E	.	.	.
1D	1F	.	2.A	.
.	.	.	4B	.
=42	=42	=42	=42	=42
2.E	2.G	0r	4c	0r
.	.	.	4B	.
.	.	.	1c	.
4F	4F	.	.	.
4G	4E	.	.	.
4A	4D	.	.	.
[2G	2E	.	2B	.
=43	=43	=43	=43	=43
2G]	2C	1G	2c	1r
4F	2E	.	2.g	.
4E	.	.	.	.
1F	1D	2.A	.	1d
.	.	.	4f	.
.	.	.	2f	.
.	.	4B	.	.
=44	=44	=44	=44	=44
2.G	2.C	4c	[0e	2.e
.	.	4d	.	.
.	.	1c	.	.
4F	4D	.	.	4f
4E	4E	.	.	4g
4D	4F	.	.	4a
[2E	[2G	4B	.	[2g
.	.	4A	.	.
=45	=45	=45	=45	=45
2E]	2G]	2B	1e]	2g]
4D	1A	2c	.	4f
4C	.	.	.	4e
1D	.	4F	1d	2.f
.	.	4G	.	.
.	2F	4A	.	.
.	.	4B	.	4g
=46	=46	=46	=46	=46
1C	2G	4c	2r	1e
.	.	4d	.	.
.	2E	1c	2g	.
2.D	1F	.	2f	2d
.	.	4B	2d	[2dd
4C	.	4A	.	.
=47	=47	=47	=47	=47
4BB	0D	4B	2.d	4dd]
4AA	.	4c	.	4cc
2BB	.	1d	.	4b
.	.	.	4c	4a
2GG	.	.	4B	4b
.	.	.	4A	4cc
2BB	.	4c	2G	[2dd
.	.	4B	.	.
=48	=48	=48	=48	=48
1AA	2E	1c	1A	4dd]
.	.	.	.	4cc
.	2C	.	.	1cc
2GG	1G	1d	1B	.
[2G	.	.	.	2b
=49	=49	=49	=49	=49
2G]	[0C	[0c	2G	0cc
2G	.	.	1g	.
2.G	.	.	.	.
.	.	.	2g	.
4F	.	.	.	.
=50	=50	=50	=50	=50
4E	1C]	0c_	1g	1r
4D	.	.	.	.
2E	.	.	.	.
1F	1r	.	1f	[1cc
=51	=51	=51	=51	=51
0C	1.G	0c]	1g	2cc]
.	.	.	.	2cc
.	.	.	1e	1cc
.	2G	.	.	.
=52	=52	=52	=52	=52
1GG	1.G	1r	2d	1b
.	.	.	2g	.
1C	.	[1c	2g	1cc
.	4F	.	2g	.
.	4E	.	.	.
=53	=53	=53	=53	=53
2FF	2F	2c]	1f	1a
2FF	2F	2c	.	.
1C	[1G	1c	1e	2g
.	.	.	.	[2g
=54	=54	=54	=54	=54
1GG	1G]	1B	1d	2g]
.	.	.	.	2g
1C	1E	1c	1G	1g
=55	=55	=55	=55	=55
1D	2D	1A	0d	1f
.	2A	.	.	.
2GG	2B	1G	.	1g
[2G	[2d	.	.	.
=56	=56	=56	=56	=56
2G]	4d]	1C	0r	1e
.	4c	.	.	.
2G	2c	.	.	.
1G	2B	1r	.	1d
.	[2d	.	.	.
=57	=57	=57	=57	=57
1F	4d]	0r	0r	1r
.	4c	.	.	.
.	2A	.	.	.
1G	2B	.	.	1g
.	[2d	.	.	.
=58	=58	=58	=58	=58
1E	4d]	0r	1G	2g
.	4c#i	.	.	.
.	2c#i	.	.	2g
1D	2d	.	2.A	1f
.	2D	.	.	.
.	.	.	4B	.
=59	=59	=59	=59	=59
0C	2.E	0r	4c	1g
.	.	.	4d	.
.	.	.	1c	.
.	4F	.	.	.
.	4G	.	.	1e
.	4A	.	.	.
.	[2G	.	4B	.
.	.	.	4A	.
=60	=60	=60	=60	=60
1GG	2G]	0r	1B	0d
.	4F	.	.	.
.	4E	.	.	.
1D	1F	.	2.A	.
.	.	.	4B	.
=61	=61	=61	=61	=61
2.E	2.G	0r	4c	0r
.	.	.	4B	.
.	.	.	1c	.
4F	4F	.	.	.
4G	4E	.	.	.
4A	4D	.	.	.
[2G	2E	.	2B	.
=62	=62	=62	=62	=62
2G]	2C	1G	2c	1r
4F	2E	.	2.g	.
4E	.	.	.	.
1F	1D	2.A	.	1d
.	.	.	4f	.
.	.	.	2f	.
.	.	4B	.	.
=63	=63	=63	=63	=63
2.G	2.C	4c	[0e	2.e
.	.	4d	.	.
.	.	1c	.	.
4F	4D	.	.	4f
4E	4E	.	.	4g
4D	4F	.	.	4a
[2E	[2G	4B	.	[2g
.	.	4A	.	.
=64	=64	=64	=64	=64
2E]	2G]	2B	1e]	2g]
4D	1A	2c	.	4f
4C	.	.	.	4e
1D	.	4F	1d	1f
.	.	4G	.	.
.	2F	4A	.	.
.	.	4B	.	.
=65	=65	=65	=65	=65
1.C	2.G	1c	1.e	2e
.	.	.	.	1g
.	4G	.	.	.
.	2G	[1c	.	.
2C	2G	.	2e	2g
=66	=66	=66	=66	=66
2C	1G	2c]	2e	2g
2C	.	2c	2e	2g
1C	1c	2c	1g	1e
.	.	2c	.	.
=67	=67	=67	=67	=67
1F	2c	2c	1f	1.a
.	2c	2c	.	.
2F	1A	2c	[1f	.
2F	.	2c	.	2a
=68	=68	=68	=68	=68
0F	2.D	1d	2f]	1a
.	.	.	2f	.
.	4E	.	.	.
.	4F	1c	1f	1a
.	4G	.	.	.
.	4A	.	.	.
.	4F	.	.	.
=69	=69	=69	=69	=69
1C	0G	1.c	0e	1g
[1C	.	.	.	[1g
.	.	2c	.	.
=70	=70	=70	=70	=70
2C]	1.G	2c	1e	2g]
2C	.	2c	.	2g
2C	.	2c	1e	2g
2C	2G	4B	.	2g
.	.	4A	.	.
=71	=71	=71	=71	=71
2C	2G	1G	2e	1.g
4BB	2G	.	2e	.
4AA	.	.	.	.
[1GG	[1G	[1G	2e	.
.	.	.	4d	4f
.	.	.	4c	4e
=72	=72	=72	=72	=72
1GG]	2G]	2G]	2B	2d
.	4F	2G	1d	2g
.	4E	.	.	.
1r	2D	2F	.	2a
.	2E	2G	2B	2g
=73	=73	=73	=73	=73
2r	1C	1A	2.c	2.e
1C	.	.	.	.
.	.	.	4d	4f
.	1c	[1G	1e	1g
2C	.	.	.	.
=74	=74	=74	=74	=74
2BB	0r	0G_	2d	[0g
2C	.	.	2c	.
2r	.	.	2B	.
[2C	.	.	[2e	.
=75	=75	=75	=75	=75
2C]	2r	1G]	2e]	0g]
2C	1G	.	2e	.
2BB	.	1r	2d	.
2C	2G	.	2e	.
=76	=76	=76	=76	=76
2D	2F	2r	2f	1r
2C	2G	1c	2e	.
2r	2A	.	1e	2r
2C	[2G	2c	.	[2g
=77	=77	=77	=77	=77
1E	2G]	2B	1e	2g]
.	2C	2c	.	2g
2D	2F	2d	2A	2f
2E	2C	2c	2e	2g
=78	=78	=78	=78	=78
2F	2F	2r	2A	2.a
2C	2.E	1c	2e	.
.	.	.	.	4g
2C	.	.	2e	[1g
.	4D	.	.	.
2C	4E	2c	2e	.
.	4F	.	.	.
=79	=79	=79	=79	=79
2GG	0G	2B	2d	0g]
2C	.	2c	2e	.
1GG	.	1d	1B	.
=80	=80	=80	=80	=80
2C	2r	[0cl	2e	2r
1C	1E	.	1e	1g
2C	2E	.	2e	2g
=81	=81	=81	=81	=81
2FF	2F	0c_	2A	2f
2C	2E	.	2e	2g
1FF	1F	.	1A	1a
=82	=82	=82	=82	=82
00Cl	00Gl	00c]	00el	00gl
==	==	==	==	==
*-	*-	*-	*-	*-
!!!system-decoration: [*]
!!!RDF**kern: i = editorial accidental
!!!RDF**kern: l = terminal long
!!!ENC: Benjamin Ory
!!!END: 2021/1/5
!!!EED: Benjamin Ory
!!!EEV: 2021/04/22
!!!YEC: Copyright 2021 Benjamin Ory, All Rights Reserved
!!!ONB: Translated from MusicXML on 2021/04/22
